data/zilliqa/assets/zil10w6ukup76ljmvgn4c25e5kpkjehe6a7vqa5r3y/logo.svg

<?xml version="1.0" encoding="UTF-8"?>
<svg xmlns="http://www.w3.org/2000/svg" xmlns:xlink="http://www.w3.org/1999/xlink" width="100" height="100" viewBox="0 0 100 100" version="1.1">
<defs>
<linearGradient id="linear0" gradientUnits="userSpaceOnUse" x1="65.8588" y1="59.6795" x2="9.1133" y2="22.2368" gradientTransform="matrix(1.5625,0,0,1.5625,0,0)">
<stop offset="0" style="stop-color:rgb(75.686275%,23.137255%,100%);stop-opacity:1;"/>
<stop offset="1" style="stop-color:rgb(46.27451%,25.098039%,100%);stop-opacity:1;"/>
</linearGradient>
</defs>
<g id="surface1">
<path style=" stroke:none;fill-rule:nonzero;fill:rgb(22.745098%,19.607843%,29.803922%);fill-opacity:1;" d="M 71.71875 27.65625 L 75.15625 31.5625 L 71.25 59.0625 C 71.09375 60.625 69.6875 61.875 67.96875 61.875 L 50.78125 61.875 L 47.1875 57.8125 L 71.71875 27.65625 M 71.71875 26.25 L 46.09375 57.8125 L 50.46875 62.96875 L 68.125 62.96875 C 70.15625 62.96875 72.03125 61.40625 72.1875 59.375 L 76.09375 31.40625 Z M 71.71875 26.25 "/>
<path style=" stroke:none;fill-rule:nonzero;fill:rgb(22.745098%,19.607843%,29.803922%);fill-opacity:1;" d="M 83.125 16.71875 L 85.9375 20 L 18.59375 20 L 15.78125 16.71875 L 83.125 16.71875 M 83.4375 15.78125 L 13.90625 15.78125 L 18.28125 20.9375 L 87.8125 20.9375 Z M 83.4375 15.78125 "/>
<path style=" stroke:none;fill-rule:nonzero;fill:rgb(22.745098%,19.607843%,29.803922%);fill-opacity:1;" d="M 20.46875 27.1875 L 24.0625 31.40625 L 6.09375 52.34375 L 2.65625 48.28125 C 2.5 46.71875 2.03125 37.96875 7.34375 27.1875 L 20.46875 27.1875 M 20.78125 26.25 C 20.78125 26.25 19.21875 26.25 6.5625 26.25 C 0.3125 38.75 1.5625 48.59375 1.5625 48.59375 L 5.9375 53.75 L 25.15625 31.40625 Z M 20.78125 26.25 "/>
<path style=" stroke:none;fill-rule:nonzero;fill:rgb(52.54902%,22.352941%,100%);fill-opacity:1;" d="M 84.6875 36.71875 L 87.34375 39.6875 C 87.96875 42.1875 88.75 43.90625 89.6875 45.78125 L 90.15625 46.5625 L 97.65625 64.21875 C 92.34375 84.375 74.0625 98.28125 53.125 98.28125 C 50.78125 98.28125 48.28125 98.125 45.9375 97.65625 L 42.03125 93.125 L 43.125 85.78125 L 84.84375 69.6875 L 85.46875 69.53125 L 85.46875 68.90625 L 84.6875 36.71875 M 83.75 34.375 L 84.21875 69.375 L 42.03125 85.625 L 40.9375 93.75 L 45.3125 98.90625 C 47.8125 99.375 50.46875 99.53125 52.96875 99.53125 C 74.84375 99.53125 93.125 84.6875 98.4375 64.375 L 90.78125 46.40625 C 89.6875 44.0625 88.75 42.1875 88.125 39.375 Z M 83.75 34.375 "/>
<path style=" stroke:none;fill-rule:nonzero;fill:rgb(52.54902%,22.352941%,100%);fill-opacity:1;" d="M 30.78125 69.21875 L 34.53125 73.59375 L 31.71875 93.4375 C 23.4375 89.0625 16.5625 82.34375 12.1875 73.90625 L 30.78125 69.21875 M 31.09375 68.28125 L 10.9375 73.4375 C 15.625 82.8125 23.125 90.3125 32.5 94.84375 L 35.625 73.4375 Z M 31.09375 68.28125 "/>
<path style=" stroke:none;fill-rule:nonzero;fill:rgb(22.745098%,19.607843%,29.803922%);fill-opacity:1;" d="M 37.1875 27.65625 L 40.625 31.71875 L 36.25 62.03125 L 15 62.03125 L 11.40625 57.8125 L 37.1875 27.65625 M 37.1875 26.25 L 10.15625 57.8125 L 14.53125 62.96875 L 37.03125 62.96875 L 41.5625 31.40625 Z M 37.1875 26.25 "/>
<path style=" stroke:none;fill-rule:nonzero;fill:rgb(22.745098%,19.607843%,29.803922%);fill-opacity:1;" d="M 10.15625 57.8125 L 32.65625 57.8125 L 37.1875 26.25 Z M 10.15625 57.8125 "/>
<path style=" stroke:none;fill-rule:nonzero;fill:rgb(22.745098%,19.607843%,29.803922%);fill-opacity:1;" d="M 63.75 57.8125 C 65.78125 57.8125 67.65625 56.25 67.8125 54.21875 L 71.71875 26.25 L 50.625 26.25 L 46.09375 57.8125 Z M 63.75 57.8125 "/>
<path style=" stroke:none;fill-rule:nonzero;fill:rgb(22.745098%,19.607843%,29.803922%);fill-opacity:1;" d="M 79.21875 15.78125 L 13.90625 15.78125 C 22.5 6.40625 34.84375 0.46875 48.59375 0.46875 C 62.5 0.46875 74.84375 6.25 83.4375 15.78125 Z M 79.21875 15.78125 "/>
<path style=" stroke:none;fill-rule:nonzero;fill:rgb(22.745098%,19.607843%,29.803922%);fill-opacity:1;" d="M 6.71875 26.25 C 3.4375 32.65625 1.5625 39.84375 1.5625 47.5 C 1.5625 47.96875 1.5625 48.28125 1.5625 48.75 L 20.78125 26.40625 L 6.71875 26.40625 Z M 6.71875 26.25 "/>
<path style=" stroke:none;fill-rule:nonzero;fill:url(#linear0);" d="M 94.0625 59.375 C 88.75 79.53125 70.46875 94.53125 48.59375 94.53125 C 45.9375 94.53125 43.4375 94.375 40.9375 93.90625 L 44.53125 68.4375 L 72.65625 68.4375 L 74.375 68.28125 C 77.1875 67.65625 79.375 65.15625 79.84375 62.1875 L 82.8125 42.1875 L 83.75 34.375 C 84.375 37.1875 85.3125 39.21875 86.40625 41.40625 Z M 31.09375 68.28125 L 6.5625 68.28125 C 11.25 77.65625 18.75 85.15625 28.125 89.6875 Z M 31.09375 68.28125 "/>
</g>
</svg>

<?xml version="1.0" encoding="UTF-8"?>
<svg version="1.1" width="100" height="100" viewBox="0 0 100 100" xmlns="http://www.w3.org/2000/svg">
    <defs>
        <linearGradient id="a" x1="65.859" x2="9.1133" y1="59.68" y2="22.237" gradientTransform="scale(1.5625)" gradientUnits="userSpaceOnUse">
            <stop stop-color="#c13bff" offset="0"/>
            <stop stop-color="#763fff" offset="1"/>
        </linearGradient>
    </defs>
    <g>
        <path d="m71.719 27.656 3.4375 3.9062-3.9062 27.5c-0.15625 1.5625-1.5625 2.8125-3.2812 2.8125h-17.188l-3.5938-4.0625 24.531-30.156m0-1.4062-25.625 31.562 4.375 5.1562h17.656c2.0312 0 3.9062-1.5625 4.0625-3.5938l3.9062-27.969z" fill="#39314c"/>
        <path d="m83.125 16.719 2.8125 3.2812h-67.344l-2.8125-3.2812h67.344m0.3125-0.9375h-69.531l4.375 5.1562h69.531z" fill="#39314c"/>
        <path d="m20.469 27.188 3.5938 4.2188-17.969 20.938-3.4375-4.0625c-0.15625-1.5625-0.625-10.312 4.6875-21.094h13.125m0.3125-0.9375h-14.219c-6.25 12.5-5 22.344-5 22.344l4.375 5.1562 19.219-22.344z" fill="#39314c"/>
        <path d="m84.688 36.719 2.6562 2.9688c0.625 2.5 1.4062 4.2188 2.3438 6.0938l0.46875 0.78125 7.5 17.656c-5.3125 20.156-23.594 34.062-44.531 34.062-2.3438 0-4.8438-0.15625-7.1875-0.625l-3.9062-4.5312 1.0938-7.3438 41.719-16.094 0.625-0.15625v-0.625l-0.78125-32.188m-0.9375-2.3438 0.46875 35-42.188 16.25-1.0938 8.125 4.375 5.1562c2.5 0.46875 5.1562 0.625 7.6562 0.625 21.875 0 40.156-14.844 45.469-35.156l-7.6562-17.969c-1.0938-2.3438-2.0312-4.2188-2.6562-7.0312z" fill="#8638ff"/>
        <path d="m30.781 69.219 3.75 4.375-2.8125 19.844c-8.2812-4.375-15.156-11.094-19.531-19.531l18.594-4.6875m0.3125-0.9375-20.156 5.1562c4.6875 9.375 12.188 16.875 21.562 21.406l3.125-21.406z" fill="#8638ff"/>
        <path d="m37.188 27.656 3.4375 4.0625-4.375 30.312h-21.25l-3.5938-4.2188 25.781-30.156m0-1.4062-27.031 31.562 4.375 5.1562h22.5l4.5312-31.562z" fill="#39314c"/>
        <path d="m10.156 57.812h22.5l4.5312-31.562z" fill="#39314c"/>
        <path d="m63.75 57.812c2.0312 0 3.9062-1.5625 4.0625-3.5938l3.9062-27.969h-21.094l-4.5312 31.562z" fill="#39314c"/>
        <path d="m79.219 15.781h-65.312c8.5938-9.375 20.938-15.312 34.688-15.312 13.906 0 26.25 5.7812 34.844 15.312z" fill="#39314c"/>
        <path d="m6.7188 26.25c-3.2812 6.4062-5.1562 13.594-5.1562 21.25v1.25l19.219-22.344h-14.062z" fill="#39314c"/>
        <path d="m94.062 59.375c-5.3125 20.156-23.594 35.156-45.469 35.156-2.6562 0-5.1562-0.15625-7.6562-0.625l3.5938-25.469h28.125l1.7188-0.15625c2.8125-0.625 5-3.125 5.4688-6.0938l2.9688-20 0.9375-7.8125c0.625 2.8125 1.5625 4.8438 2.6562 7.0312zm-62.969 8.9062h-24.531c4.6875 9.375 12.188 16.875 21.562 21.406z" fill="url(#a)"/>
    </g>
</svg>
